X: 21854
T: Kishkeam Lasses, The
R: slide
M: 12/8
K: Gmajor
|:gfg a2 g f2 A ABc|e2 e d2 c B2 G GBd|
gfg a2 g f2 A ABc|ded cBA G3 G3:|
|:B2 d g3 f2 d c3|ded c2 A e2 d B3|
B2 d g3 f2 d c2 B|ABc def g3 g3:|

